assets/sonr-icons/currency-euro.svg

<svg xmlns="http://www.w3.org/2000/svg" width="24" height="24" fill="none" viewBox="0 0 24 24"><path fill="#000" d="M13.44 2.88C9.40925 2.88 5.98959 5.49433 4.78402 9.12H3.36002C2.82983 9.12 2.40002 9.54981 2.40002 10.08C2.40002 10.6102 2.82983 11.04 3.36002 11.04H4.36994C4.33694 11.3555 4.32002 11.6758 4.32002 12C4.32002 12.3242 4.33694 12.6445 4.36994 12.96H3.36002C2.82983 12.96 2.40002 13.3898 2.40002 13.92C2.40002 14.4502 2.82983 14.88 3.36002 14.88H4.78402C5.98959 18.5057 9.40925 21.12 13.44 21.12C15.69 21.12 17.7515 20.3046 19.3416 18.9536C19.7457 18.6103 19.7949 18.0045 19.4516 17.6004C19.1083 17.1964 18.5025 17.1471 18.0984 17.4904C16.8426 18.5574 15.218 19.2 13.44 19.2C10.4872 19.2 7.94993 17.423 6.83901 14.88H12.96C13.4902 14.88 13.92 14.4502 13.92 13.92C13.92 13.3898 13.4902 12.96 12.96 12.96H6.30345C6.26162 12.646 6.24002 12.3255 6.24002 12C6.24002 11.6745 6.26162 11.3541 6.30345 11.04H12.96C13.4902 11.04 13.92 10.6102 13.92 10.08C13.92 9.54981 13.4902 9.12 12.96 9.12H6.83901C7.94993 6.57698 10.4872 4.8 13.44 4.8C15.218 4.8 16.8426 5.4426 18.0984 6.50961C18.5025 6.85289 19.1083 6.80364 19.4516 6.39958C19.7949 5.99553 19.7457 5.38969 19.3416 5.0464C17.7515 3.69541 15.69 2.88 13.44 2.88Z"/></svg>

<svg xmlns="http://www.w3.org/2000/svg" width="24" height="24" fill="none"><path fill="currentColor" d="M13.44 2.88a9.12 9.12 0 0 0-8.656 6.24H3.36a.96.96 0 0 0 0 1.92h1.01a9.2 9.2 0 0 0 0 1.92H3.36a.96.96 0 1 0 0 1.92h1.424a9.123 9.123 0 0 0 14.558 4.074.96.96 0 1 0-1.244-1.464 7.17 7.17 0 0 1-4.658 1.71 7.2 7.2 0 0 1-6.601-4.32h6.121a.96.96 0 1 0 0-1.92H6.303a7.3 7.3 0 0 1 0-1.92h6.657a.96.96 0 1 0 0-1.92H6.839A7.2 7.2 0 0 1 13.44 4.8c1.778 0 3.403.643 4.658 1.71a.96.96 0 0 0 1.244-1.464A9.1 9.1 0 0 0 13.44 2.88"/></svg>
